packages/sources/assets/src/assets/belfius.svg

<svg width="58" height="40" viewBox="0 0 58 40" fill="none" xmlns="http://www.w3.org/2000/svg">
<rect x="0.5" y="0.5" width="57" height="39" rx="3.5" fill="white" stroke="#F3F3F3"/>
<path fill-rule="evenodd" clip-rule="evenodd" d="M10.0486 15.0007C9.00012 15.0007 7.94984 15.0067 6.90141 15.0177C5.74766 15.0296 5.01039 15.8093 5.00596 16.9671C4.9982 19.0326 4.99783 21.1036 5.00596 23.1716C5.01076 24.3623 5.7569 25.0959 6.95167 25.1011C7.9054 25.1055 8.85809 25.105 9.81021 25.1044H9.81056C10.1278 25.1042 10.445 25.104 10.7622 25.104C11.1371 25.104 11.5122 25.1031 11.8875 25.1022H11.8879H11.8881C12.8269 25.1 13.7665 25.0977 14.705 25.1096C15.0098 25.1136 15.1059 25.0383 15.1044 24.7215C15.0974 23.3067 15.0974 21.8923 15.0974 20.478V20.4772C15.0974 19.3062 15.0974 18.1354 15.0934 16.9646C15.0934 15.8053 14.3554 15.0288 13.2035 15.017C12.1506 15.0063 11.1066 15 10.0534 15L10.0486 15.0007ZM10.0541 17.9339C10.6886 17.9339 11.3213 17.9358 11.9551 17.9394C12.5249 17.9428 12.7722 18.1652 12.7762 18.6398C12.7807 19.1135 12.4909 19.3685 11.927 19.3737C11.5047 19.3774 11.0818 19.3762 10.6594 19.3749H10.6593C10.4482 19.3743 10.2372 19.3737 10.0264 19.3737H10.0238C9.85491 19.3737 9.68593 19.374 9.5169 19.3744C9.06599 19.3752 8.61478 19.3761 8.16456 19.3707C7.62759 19.3637 7.34858 19.1109 7.34599 18.6534C7.3434 18.1767 7.59248 17.9428 8.15051 17.9391C8.7843 17.9354 9.41957 17.9339 10.0541 17.9339ZM10.2238 20.7292C10.1654 20.7292 10.107 20.7292 10.0486 20.7292C9.40589 20.7292 8.76435 20.7292 8.12169 20.7322C7.60579 20.7344 7.32308 21.013 7.33158 21.4802C7.33934 21.9255 7.60579 22.1727 8.1191 22.1805C8.56944 22.1873 9.02014 22.1859 9.4707 22.1846C9.65498 22.184 9.83923 22.1834 10.0234 22.1834H10.026C10.2132 22.1834 10.4005 22.184 10.5878 22.1845C11.0507 22.1858 11.5137 22.1871 11.9754 22.1805C12.4876 22.1731 12.7548 21.9259 12.7629 21.4831C12.7718 21.0164 12.4895 20.7348 11.9754 20.7322C11.3912 20.7292 10.8079 20.7292 10.2238 20.7292Z" fill="#AA0024"/>
<path fill-rule="evenodd" clip-rule="evenodd" d="M36.2973 22.7525V22.7524V22.7524V22.7524V22.7524C36.2971 22.5227 36.297 22.293 36.297 22.0634C36.297 21.8357 36.2976 21.6081 36.2982 21.3804V21.3804V21.3803V21.3803V21.3802C36.2999 20.7663 36.3016 20.1523 36.2911 19.5385C36.2874 19.3031 36.3587 19.2307 36.5904 19.2425C36.8771 19.2572 37.1645 19.2532 37.4518 19.2492H37.4518H37.4519H37.4519H37.452C37.5191 19.2482 37.5862 19.2473 37.6532 19.2466C38.219 19.2403 38.4604 19.0256 38.4563 18.5396C38.4526 18.0769 38.1847 17.8478 37.63 17.8412C37.438 17.8388 37.2461 17.8392 37.0542 17.8396H37.0541H37.0541H37.0541H37.0541C36.8917 17.84 36.7294 17.8403 36.5671 17.839C36.5488 17.8387 36.5299 17.84 36.5108 17.8413C36.4424 17.8459 36.372 17.8506 36.3206 17.7865C36.1151 17.5315 36.3709 16.6272 36.6795 16.5004C37.0405 16.3519 37.3642 16.4642 37.6983 16.6094C38.229 16.84 38.6636 16.5182 38.6145 15.9502C38.5793 15.5436 38.2501 15.2258 37.7264 15.0835C36.423 14.7295 34.7844 15.5067 34.8812 17.3009C34.883 17.3341 34.886 17.368 34.889 17.4019L34.889 17.4019C34.9107 17.6454 34.9321 17.887 34.4854 17.8523C33.968 17.812 33.6461 18.1243 33.6473 18.5492C33.6487 18.9909 33.9433 19.2614 34.4832 19.2377C34.8224 19.2226 34.8956 19.3279 34.8919 19.6535C34.8765 21.0294 34.8801 22.4061 34.8837 23.7832L34.8853 24.3912C34.8864 24.9355 35.1299 25.2123 35.5889 25.2146C36.0649 25.2168 36.2948 24.9585 36.2962 24.4093C36.2981 23.857 36.2977 23.3047 36.2973 22.7525ZM19.0098 15.1366H19.0098H19.0098H19.0098H19.0098H19.0098H19.0098C19.3362 15.1343 19.6613 15.132 19.9881 15.132C20.3573 15.1323 20.7272 15.1334 21.096 15.1353C22.3174 15.1397 23.2513 15.6652 23.7483 16.7831C24.2262 17.8556 24.0547 18.8885 23.2675 19.7836C23.1116 19.9606 23.1751 20.0374 23.3041 20.1716C24.231 21.1384 24.4379 22.2821 23.9087 23.4765C23.3928 24.6388 22.4327 25.2401 21.1267 25.2234C20.726 25.2183 20.325 25.2193 19.924 25.2203C19.5421 25.2213 19.1602 25.2222 18.7785 25.2179C18.222 25.2112 18.0047 24.9928 18.0025 24.4304C17.9988 23.4859 18 22.541 18.0012 21.5965C18.0018 21.1243 18.0025 20.6523 18.0025 20.1805V20.1775C18.0025 19.7148 18.0022 19.252 18.0019 18.7893C18.0013 17.864 18.0007 16.9389 18.0025 16.0148C18.0036 15.3648 18.2272 15.1423 18.8827 15.1375L19.0098 15.1366H19.0098ZM20.3807 16.5147H20.3807H20.3807H20.3807H20.3807H20.3807H20.3807C20.1538 16.5165 19.927 16.5183 19.7002 16.5108H19.6998V16.5111C19.4567 16.503 19.3968 16.6032 19.4046 16.8234C19.4136 17.0698 19.4115 17.3167 19.4094 17.5636V17.5636V17.5637V17.5637V17.5637V17.5637V17.5638V17.5638V17.5638C19.4084 17.6713 19.4075 17.7788 19.4075 17.8863C19.4075 17.9895 19.4086 18.0928 19.4097 18.1961C19.4124 18.4471 19.4151 18.6983 19.402 18.9491C19.389 19.1956 19.4637 19.2887 19.7224 19.278C20.0076 19.2662 20.2936 19.268 20.5796 19.2698C20.7665 19.271 20.9533 19.2721 21.14 19.2695C21.9955 19.258 22.548 18.7303 22.5657 17.9169C22.5831 17.1619 22.0162 16.5673 21.205 16.5248C20.9303 16.5104 20.6555 16.5126 20.3807 16.5147H20.3807H20.3807H20.3807H20.3807H20.3807H20.3807H20.3807H20.3807H20.3807ZM20.328 20.6859H20.328C20.6441 20.683 20.96 20.6802 21.2756 20.6989C22.1289 20.7492 22.7867 21.4399 22.786 22.2433C22.7856 23.0357 22.1578 23.7182 21.3181 23.784C20.9837 23.8102 20.6479 23.8083 20.3119 23.8064C20.1037 23.8052 19.8953 23.804 19.6873 23.8095C19.477 23.815 19.4005 23.7393 19.406 23.5283C19.4141 23.2292 19.4123 22.9304 19.4105 22.6312C19.4098 22.5037 19.409 22.3762 19.409 22.2485C19.409 22.1215 19.4097 21.9944 19.4104 21.8673V21.8673C19.4121 21.5668 19.4138 21.2661 19.406 20.9661C19.4005 20.7562 19.4759 20.6805 19.6873 20.6849H19.6862C19.9 20.6897 20.114 20.6878 20.3279 20.6859H20.3279H20.3279H20.3279H20.3279H20.328H20.328ZM27.5839 17.7133C26.2665 17.7403 24.9128 18.9059 24.9993 20.523C25.0347 21.186 25.0203 21.8534 24.9993 22.5175C24.9675 23.5057 25.3928 24.2482 26.1667 24.8206C27.2765 25.6429 29.1594 25.4433 29.9613 24.4211C30.2688 24.0286 30.264 23.7009 29.9473 23.4004C29.6361 23.1055 29.2843 23.1247 28.9321 23.454C28.3885 23.9621 27.7746 24.0752 27.1941 23.7774C26.5784 23.4614 26.3345 22.9562 26.3925 22.1968C26.4113 21.9554 26.5333 21.9477 26.7103 21.9492C27.0253 21.9521 27.3398 21.9511 27.6547 21.9501H27.6549H27.6551H27.6553H27.6554H27.6556H27.6558H27.6559C27.8131 21.9497 27.9704 21.9492 28.1279 21.9492H28.9265C30.3405 21.9492 30.4639 21.8206 30.397 20.4048C30.3227 18.8201 29.1279 17.6815 27.5839 17.7133ZM27.7247 19.128C28.3984 19.1391 28.9217 19.6272 28.9676 20.2636C28.9831 20.4791 28.914 20.5552 28.7004 20.5478C28.4629 20.5398 28.2246 20.5415 27.9865 20.5433L27.9863 20.5433C27.885 20.5441 27.7838 20.5448 27.6826 20.5448C27.584 20.5448 27.4854 20.5439 27.3866 20.5429L27.3866 20.5429C27.1608 20.5407 26.9348 20.5385 26.7096 20.5478C26.4827 20.557 26.3955 20.495 26.4198 20.2466C26.4845 19.5862 27.0207 19.1154 27.7247 19.1272V19.128ZM47.4206 20.7318C47.4206 20.9373 47.4229 21.1428 47.4251 21.3484C47.4302 21.8076 47.4352 22.2669 47.4151 22.7249C47.3667 23.8235 46.8341 24.6514 45.836 25.0959C44.789 25.5619 43.7842 25.4049 42.9117 24.6344C42.3662 24.1532 42.0587 23.5364 42.0495 22.8076C42.0314 21.3904 42.0354 19.9728 42.0428 18.554C42.045 18.1165 42.3211 17.8401 42.715 17.8297C43.1216 17.819 43.4194 18.1076 43.4227 18.564C43.4271 19.159 43.4259 19.7541 43.4248 20.3494C43.4235 21.0833 43.4221 21.8174 43.4309 22.5515C43.4427 23.5382 44.2509 24.1517 45.1223 23.8649C45.6844 23.6802 45.9867 23.264 45.9908 22.6214C45.9959 21.837 45.9952 21.0526 45.9945 20.268C45.9941 19.7973 45.9937 19.3265 45.9945 18.8556L45.9945 18.8383C45.9948 18.6968 45.9952 18.5529 46.0207 18.4151C46.0939 18.0197 46.3681 17.8242 46.7439 17.8397C47.119 17.8552 47.4007 18.0666 47.411 18.4724C47.4246 19.0038 47.4217 19.5358 47.4189 20.0677V20.0678V20.0679V20.0679V20.068V20.068V20.0681C47.4177 20.2891 47.4165 20.5101 47.4165 20.7311H47.4206V20.7318ZM50.8575 17.7015C51.4735 17.727 52.1476 18.0415 52.6775 18.6549C52.9492 18.9694 52.9469 19.4565 52.6805 19.6941C52.3412 19.9968 51.941 19.9883 51.6321 19.6139C51.281 19.1886 50.8542 19.0537 50.3342 19.149C50.0504 19.2008 49.8394 19.3597 49.775 19.649C49.7122 19.9332 49.8704 20.1228 50.0988 20.2692C50.4236 20.4776 50.7784 20.6206 51.1383 20.7514C51.472 20.8726 51.788 21.0275 52.0922 21.2097C52.8653 21.6731 53.2112 22.3557 53.1447 23.2489C53.0789 24.1369 52.5741 24.7182 51.7984 25.0704C50.7555 25.5442 49.3822 25.3232 48.6523 24.5967C48.2732 24.2193 48.21 23.8158 48.4805 23.4991C48.7954 23.1303 49.2022 23.1347 49.5925 23.5109C50.0847 23.9854 50.8497 24.0641 51.373 23.6942C51.8852 23.332 51.8889 22.7736 51.3715 22.4244C51.0638 22.2166 50.7208 22.0829 50.3777 21.9491L50.3776 21.9491L50.3775 21.9491L50.3775 21.949C50.2678 21.9063 50.1582 21.8635 50.0496 21.8183C49.2991 21.505 48.6098 21.125 48.4121 20.2296C48.1069 18.8475 49.1328 17.69 50.8575 17.7015ZM32.861 21.3338V21.3338V21.3337C32.8606 20.9483 32.8602 20.5629 32.8601 20.1775C32.8599 19.7373 32.8604 19.297 32.8609 18.8568V18.8568V18.8568C32.862 17.8506 32.8631 16.8445 32.8557 15.8385C32.8523 15.3851 32.5504 15.1053 32.1376 15.1172C31.7459 15.1283 31.4735 15.3851 31.4732 15.7857C31.4683 18.7089 31.468 21.6295 31.4743 24.5516C31.475 24.9588 31.7045 25.1706 32.1066 25.1935C32.597 25.2216 32.856 24.9544 32.8586 24.3831C32.8632 23.3667 32.8621 22.3502 32.861 21.3338ZM40.7316 21.5079C40.7316 21.788 40.7319 22.0681 40.7321 22.3481V22.3482C40.7326 23.028 40.7332 23.7078 40.7305 24.3875C40.7283 24.9577 40.5136 25.2068 40.0395 25.2072C39.5694 25.2075 39.338 24.9533 39.3366 24.389C39.3307 22.4839 39.3314 20.5788 39.3362 18.6756C39.3377 18.1435 39.6052 17.8364 40.0376 17.836C40.4755 17.8356 40.7287 18.1364 40.7305 18.6742C40.7332 19.3435 40.7326 20.013 40.7321 20.6824V20.6825C40.7319 20.9581 40.7316 21.2338 40.7316 21.5094V21.5079ZM39.9175 17.0115C40.4789 17.0799 40.7327 16.7791 40.7316 16.0015C40.7571 15.6346 40.7013 15.2646 40.2224 15.143C39.7786 15.0307 39.4212 15.2705 39.3458 15.7177C39.2213 16.4564 39.4412 16.9531 39.9175 17.0115Z" fill="#2D3C49"/>
</svg>

<svg width="58" height="40" fill="none" xmlns="http://www.w3.org/2000/svg"><rect x=".5" y=".5" width="57" height="39" rx="3.5" fill="#fff" stroke="#F3F3F3"/><path fill-rule="evenodd" clip-rule="evenodd" d="M10.049 15c-1.049 0-2.1.007-3.148.018-1.153.012-1.89.791-1.895 1.95a807.551 807.551 0 0 0 0 6.204c.005 1.19.75 1.924 1.946 1.93a680.8 680.8 0 0 0 2.858.002h.952c.375 0 .75 0 1.125-.002h.001c.939-.002 1.879-.004 2.817.008.305.004.4-.072.4-.389-.008-1.414-.008-2.829-.008-4.243 0-1.172 0-2.343-.004-3.513 0-1.16-.738-1.936-1.89-1.948a309.1 309.1 0 0 0-3.15-.017h-.004Zm.005 2.934c.635 0 1.267.002 1.901.005.57.004.817.226.821.7.005.474-.285.73-.849.735-.422.003-.845.002-1.268 0H9.517c-.451.001-.902.002-1.352-.003-.537-.007-.816-.26-.819-.718-.003-.476.246-.71.805-.714a301.59 301.59 0 0 1 1.903-.005Zm.17 2.795h-.175c-.643 0-1.285 0-1.927.003-.516.002-.799.281-.79.748.007.445.274.693.787.7.45.007.901.006 1.352.005l.552-.002h.003l.562.002c.463 0 .926.002 1.387-.005.513-.007.78-.254.788-.697.009-.467-.274-.748-.788-.75-.584-.004-1.167-.004-1.751-.004Z" fill="#AA0024"/><path fill-rule="evenodd" clip-rule="evenodd" d="M36.297 22.753v-.69l.001-.683c.002-.614.004-1.228-.007-1.841-.004-.236.068-.308.3-.297.286.015.573.011.86.007h.001l.201-.002c.566-.007.807-.221.803-.707-.003-.463-.271-.692-.826-.699a36.865 36.865 0 0 0-.576-.001l-.487-.001-.056.002c-.069.005-.139.01-.19-.055-.206-.255.05-1.159.358-1.286.361-.148.685-.036 1.02.11.53.23.965-.092.916-.66-.036-.406-.365-.724-.889-.866-1.303-.354-2.942.423-2.845 2.217l.008.1c.022.244.043.486-.404.451-.517-.04-.839.272-.838.697.002.442.296.712.836.689.34-.015.413.09.409.416-.016 1.375-.012 2.752-.008 4.13l.001.607c.001.545.245.821.704.824.476.002.706-.256.707-.806.002-.552.002-1.104.001-1.656ZM19.01 15.137a106.1 106.1 0 0 1 2.086-.002c1.221.005 2.155.53 2.652 1.648.478 1.073.307 2.105-.48 3-.156.178-.093.254.036.389.927.966 1.134 2.11.605 3.305-.516 1.162-1.476 1.763-2.782 1.746-.401-.005-.802-.004-1.203-.003-.382.001-.764.002-1.145-.002-.557-.007-.774-.225-.776-.788-.004-.944-.003-1.889-.002-2.834l.002-1.416v-.003l-.001-1.388v-2.774c.002-.65.225-.873.88-.878h.128Zm1.37 1.378a17.14 17.14 0 0 1-.68-.004c-.243-.008-.303.092-.295.312.009.247.006.494.004.74a34.67 34.67 0 0 0 0 .633c.003.251.006.502-.007.753-.013.247.062.34.32.329.286-.012.572-.01.858-.008.187.001.373.002.56 0 .855-.012 1.408-.54 1.426-1.353.017-.755-.55-1.35-1.361-1.392-.275-.015-.55-.012-.824-.01Zm-.052 4.17c.316-.002.632-.005.948.014.853.05 1.51.74 1.51 1.544 0 .793-.628 1.475-1.468 1.541-.334.026-.67.024-1.006.022a19.408 19.408 0 0 0-.625.003c-.21.006-.287-.07-.281-.28.008-.3.006-.599.005-.898l-.002-.383.001-.38c.002-.301.004-.602-.004-.902-.005-.21.07-.286.281-.281.213.005.427.003.64 0h.001Zm7.256-2.972c-1.317.027-2.671 1.193-2.585 2.81.036.663.021 1.33 0 1.994-.031.989.394 1.731 1.168 2.304 1.11.822 2.992.622 3.794-.4.308-.392.303-.72-.014-1.02-.31-.296-.663-.276-1.015.053-.543.508-1.157.621-1.738.323-.616-.316-.86-.82-.802-1.58.02-.242.141-.25.318-.248.315.003.63.002.945.001h1.272c1.413 0 1.537-.13 1.47-1.545-.074-1.585-1.27-2.724-2.813-2.692Zm.14 1.415c.674.011 1.198.5 1.244 1.136.015.215-.054.291-.268.284a17.331 17.331 0 0 0-.713-.005 38.405 38.405 0 0 1-.6 0 13.283 13.283 0 0 0-.677.005c-.227.009-.315-.053-.29-.301.064-.66.6-1.132 1.305-1.12v.001Zm19.697 1.604c0 .205.002.41.004.616.005.46.01.919-.01 1.377-.048 1.098-.58 1.926-1.579 2.37-1.047.467-2.052.31-2.924-.46-.546-.482-.853-1.099-.862-1.827a236.494 236.494 0 0 1-.007-4.254c.002-.438.278-.714.672-.724.407-.011.704.278.708.734.004.595.003 1.19.002 1.785-.002.734-.003 1.468.006 2.203.012.986.82 1.6 1.691 1.313.562-.185.865-.601.869-1.244.005-.784.004-1.568.004-2.353v-1.43c0-.141 0-.285.026-.423.073-.395.347-.59.723-.575.375.015.657.227.667.632.014.532.01 1.064.008 1.596l-.002.663h.004Zm3.437-3.03c.616.025 1.29.34 1.82.953.271.314.269.801.003 1.04-.34.302-.74.293-1.049-.081-.351-.425-.778-.56-1.298-.465-.284.052-.495.21-.559.5-.063.284.095.474.324.62.325.209.68.352 1.04.482.333.122.649.276.953.459.773.463 1.12 1.146 1.053 2.039-.066.888-.57 1.47-1.347 1.821-1.043.474-2.416.253-3.146-.473-.379-.378-.442-.781-.172-1.098.315-.369.722-.364 1.113.012.492.474 1.257.553 1.78.183.512-.362.516-.92-.002-1.27-.307-.207-.65-.341-.993-.475-.11-.043-.22-.086-.328-.13-.75-.314-1.44-.694-1.638-1.59-.305-1.381.72-2.539 2.446-2.527ZM32.86 21.334a1485.333 1485.333 0 0 1 0-2.477c.001-1.006.002-2.012-.005-3.018-.004-.454-.306-.734-.718-.722-.392.011-.664.268-.665.669-.005 2.923-.005 5.844.001 8.766.001.407.23.619.633.642.49.028.749-.24.752-.81.004-1.017.003-2.034.002-3.05Zm7.87.174.001.84c0 .68.001 1.36-.002 2.04-.002.57-.216.819-.69.82-.47 0-.702-.255-.703-.819-.006-1.905-.006-3.81 0-5.713 0-.532.268-.84.7-.84.438 0 .692.3.694.838.002.67.002 1.339.001 2.008v.827-.001Zm-.814-4.496c.562.068.816-.233.815-1.01.025-.367-.03-.737-.51-.859-.443-.112-.8.127-.876.575-.125.738.095 1.235.572 1.294Z" fill="#2D3C49"/></svg>
